web/ui/src/components/workflow/workflow-editor/svgs/shape/webhook.svg

<svg height="200" viewBox="0 0 200 200" width="200" xmlns="http://www.w3.org/2000/svg"><g fill="none" fill-rule="evenodd"><rect fill="#fff" height="198" rx="51" stroke="#35474f" stroke-width="2" width="198" x="1" y="1"/><g fill-rule="nonzero" transform="translate(40 40)"><path d="m0 4h120v120h-120z" fill="#000" opacity="0"/><path d="m52.4473683 95.1823128c-7.3 10.3500002-21.55 12.9500002-31.85 5.7500002-10.25-7.2000003-12.64999999-21.5500002-5.45-32.0000002 4.0820932-5.926576 10.7102037-9.5924025 17.9-9.9l.25 7.15c-4.55.35-8.95 2.7-11.8 6.8-5 7.2-3.45 16.9 3.4 21.75 6.9 4.8 16.55 2.95 21.55-4.2 1.55-2.25 2.45-4.7 2.8-7.2v-5.0500001l27.9-.1999999.35-.55c2.6499999-4.6 8.4-6.2000001 12.9-3.6000001 2.1750976 1.2727425 3.7553649 3.3575743 4.3930211 5.7956715.6376561 2.4380971.2804444 5.0296542-.9930211 7.2043286-2.6499999 4.55-8.45 6.15-12.95 3.55-2.05-1.15-3.5-3-4.15-5.1l-20.35.0999999c-.5959679 3.4737265-1.925506 6.7805264-3.9 9.7000001m36.4-35.7c12.6499997 1.55 21.6499997 12.9 20.0999997 25.35-1.55 12.5-13.0499997 21.3500002-25.6999997 19.8000002-7.1192376-.829207-13.4526414-4.9099134-17.15-11.0500003l6.2-3.6c2.5967358 4.0208309 6.8478746 6.6777926 11.6 7.2500001 8.7500001 1.05 16.4999997-4.9 17.5499997-13.2500001 1.05-8.3499999-5.1499997-15.9999999-13.7999997-17.0499999-2.7-.3-5.3.05-7.65.9l-4.25 2.1999999-12.9-23.85h-1.1c-5.2402314-.1525792-9.3732428-4.5089967-9.25-9.75.15-5.1999999 4.65-9.2499999 9.9-9.0499999 5.25.3 9.4 4.55 9.25 9.75-.1 2.2-.9500001 4.2-2.3 5.7499999l9.5 17.55c3.0999999-.9999999 6.5-1.35 10-.9499999m-47.45-13.6000001c-5-11.75.3-25.2 11.85-30.0999999 11.6-4.9 25 .65 30 12.3999999 2.95 6.85 2.35 14.35-1 20.3500001l-6.2-3.6c2.1-4.05 2.45-9 .45-13.65-3.4-8-12.45-11.85-20.2-8.6-7.8 3.3-11.3 12.5-7.9 20.4999999 1.4 3.3 3.75 5.85 6.6 7.5500001l1.95 1.05-15.35 24.95c.15.25.3500001.55.5.9499999 2.45 4.5500001.75 10.3-3.85 12.75-4.55 2.4500001-10.3.6500001-12.8-4.05-2.4500001-4.65-.75-10.4 3.85-12.8499999 1.95-1.05 4.1000001-1.3 6.15-.85l11.55-18.8500001c-2.3499999-2.15-4.35-4.85-5.6-7.95z" fill="#35474f"/></g></g></svg>

<?xml version="1.0" encoding="UTF-8"?>
<svg width="200px" height="200px" viewBox="0 0 200 200" version="1.1" xmlns="http://www.w3.org/2000/svg" xmlns:xlink="http://www.w3.org/1999/xlink">
    <title>node-version</title>
    <g id="页面-1" stroke="none" stroke-width="1" fill="none" fill-rule="evenodd">
        <g id="节点" transform="translate(-3852.000000, -83.000000)">
            <g id="node-version备份-3" transform="translate(3852.000000, 83.000000)">
                <rect id="矩形备份-39" stroke="#35474F" stroke-width="2" fill="#FFFFFF" x="1" y="1" width="198" height="198" rx="51"></rect>
                <g id="webhook" transform="translate(40.000000, 40.000000)" fill-rule="nonzero">
                    <rect id="矩形" fill="#000000" opacity="0" x="0" y="4" width="120" height="120"></rect>
                    <path d="M52.4473683,95.1823128 C45.1473683,105.532313 30.8973683,108.132313 20.5973683,100.932313 C10.3473683,93.7323127 7.94736831,79.3823128 15.1473683,68.9323128 C19.2294615,63.0057368 25.857572,59.3399103 33.0473683,59.0323128 L33.2973683,66.1823128 C28.7473683,66.5323128 24.3473683,68.8823128 21.4973683,72.9823128 C16.4973683,80.1823128 18.0473683,89.8823128 24.8973683,94.7323128 C31.7973683,99.5323128 41.4473683,97.6823128 46.4473683,90.5323128 C47.9973683,88.2823128 48.8973683,85.8323128 49.2473683,83.3323128 L49.2473683,78.2823127 L77.1473683,78.0823128 L77.4973683,77.5323128 C80.1473682,72.9323128 85.8973683,71.3323127 90.3973683,73.9323127 C92.5724659,75.2050552 94.1527332,77.289887 94.7903894,79.7279842 C95.4280455,82.1660813 95.0708338,84.7576384 93.7973683,86.9323128 C91.1473684,91.4823128 85.3473683,93.0823128 80.8473683,90.4823128 C78.7973683,89.3323128 77.3473683,87.4823128 76.6973683,85.3823128 L56.3473683,85.4823127 C55.7514004,88.9560392 54.4218623,92.2628391 52.4473683,95.1823128 M88.8473683,59.4823128 C101.497368,61.0323128 110.497368,72.3823128 108.947368,84.8323128 C107.397368,97.3323128 95.8973683,106.182313 83.2473683,104.632313 C76.1281307,103.803106 69.7947269,99.7223996 66.0973683,93.5823127 L72.2973683,89.9823127 C74.8941041,94.0031436 79.1452429,96.6601053 83.8973683,97.2323128 C92.6473684,98.2823128 100.397368,92.3323128 101.447368,83.9823127 C102.497368,75.6323128 96.2973683,67.9823128 87.6473683,66.9323128 C84.9473683,66.6323128 82.3473683,66.9823128 79.9973683,67.8323128 L75.7473683,70.0323127 L62.8473683,46.1823127 L61.7473683,46.1823127 C56.5071369,46.0297335 52.3741255,41.673316 52.4973683,36.4323127 C52.6473683,31.2323128 57.1473683,27.1823128 62.3973683,27.3823128 C67.6473683,27.6823128 71.7973683,31.9323128 71.6473683,37.1323128 C71.5473683,39.3323128 70.6973682,41.3323128 69.3473683,42.8823127 L78.8473683,60.4323127 C81.9473682,59.4323128 85.3473683,59.0823127 88.8473683,59.4823128 M41.3973683,45.8823127 C36.3973683,34.1323127 41.6973683,20.6823127 53.2473683,15.7823128 C64.8473683,10.8823128 78.2473683,16.4323128 83.2473683,28.1823127 C86.1973683,35.0323127 85.5973683,42.5323127 82.2473683,48.5323128 L76.0473683,44.9323128 C78.1473683,40.8823128 78.4973683,35.9323128 76.4973683,31.2823128 C73.0973683,23.2823128 64.0473683,19.4323128 56.2973683,22.6823128 C48.4973683,25.9823128 44.9973683,35.1823128 48.3973683,43.1823127 C49.7973683,46.4823127 52.1473683,49.0323127 54.9973683,50.7323128 L56.9473683,51.7823128 L41.5973683,76.7323128 C41.7473683,76.9823128 41.9473684,77.2823128 42.0973683,77.6823127 C44.5473683,82.2323128 42.8473683,87.9823127 38.2473683,90.4323127 C33.6973683,92.8823128 27.9473683,91.0823128 25.4473683,86.3823127 C22.9973682,81.7323127 24.6973683,75.9823127 29.2973683,73.5323128 C31.2473683,72.4823128 33.3973684,72.2323128 35.4473683,72.6823128 L46.9973683,53.8323127 C44.6473684,51.6823127 42.6473683,48.9823127 41.3973683,45.8823127 Z" id="形状" fill="#35474F"></path>
                </g>
            </g>
        </g>
    </g>
</svg>
